penguin-flat.svg

<?xml version="1.0" encoding="UTF-8" standalone="no"?>
<svg
   xmlns:dc="http://purl.org/dc/elements/1.1/"
   xmlns:cc="http://creativecommons.org/ns#"
   xmlns:rdf="http://www.w3.org/1999/02/22-rdf-syntax-ns#"
   xmlns:svg="http://www.w3.org/2000/svg"
   xmlns="http://www.w3.org/2000/svg"
   xmlns:sodipodi="http://sodipodi.sourceforge.net/DTD/sodipodi-0.dtd"
   xmlns:inkscape="http://www.inkscape.org/namespaces/inkscape"
   width="310.96"
   height="367.914"
   id="svg3131"
   version="1.1"
   inkscape:version="0.48.3.1 r9886"
   sodipodi:docname="penguin-flat.svg">
  <metadata
     id="metadata3237">
    <rdf:RDF>
      <cc:Work
         rdf:about="">
        <dc:format>image/svg+xml</dc:format>
        <dc:type
           rdf:resource="http://purl.org/dc/dcmitype/StillImage" />
      </cc:Work>
    </rdf:RDF>
  </metadata>
  <sodipodi:namedview
     pagecolor="#ffffff"
     bordercolor="#666666"
     borderopacity="1"
     objecttolerance="10"
     gridtolerance="10"
     guidetolerance="10"
     inkscape:pageopacity="0"
     inkscape:pageshadow="2"
     inkscape:window-width="1366"
     inkscape:window-height="718"
     id="namedview3235"
     showgrid="false"
     inkscape:zoom="1.1578322"
     inkscape:cx="224.66712"
     inkscape:cy="197.03741"
     inkscape:window-x="0"
     inkscape:window-y="0"
     inkscape:window-maximized="1"
     inkscape:current-layer="svg3131" />
  <defs
     id="defs3133">
    <marker
       id="ArrowEnd"
       viewBox="0 0 10 10"
       refX="0"
       refY="5"
       markerUnits="strokeWidth"
       markerWidth="4"
       markerHeight="3"
       orient="auto">
      <path
         d="M 0 0 L 10 5 L 0 10 z"
         id="path3136" />
    </marker>
    <marker
       id="ArrowStart"
       viewBox="0 0 10 10"
       refX="10"
       refY="5"
       markerUnits="strokeWidth"
       markerWidth="4"
       markerHeight="3"
       orient="auto">
      <path
         d="M 10 0 L 0 5 L 10 10 z"
         id="path3139" />
    </marker>
  </defs>
  <g
     id="g3141" />
  <g
     id="g3143">
    <path
       style="fill:#000000;stroke:none"
       d="M 264.65697,250.36876 C 277.39993,298.80867 251.731,306.918 238.928,324.908 c -12.812,18.06 -11.224,34.32 -34.9,27.994 -31.67968,-7.11043 -70.12225,-6.03654 -88.801,2.369 -15.111,6.835 -65.8433,-82.893 -69.9412,-99.594 -5.250079,-29.94034 14.132328,-65.61994 30.4339,-90.52 C 90.0918,143.52 91.879853,140.73861 98.503,109.285 93.9757,47.0386 96.704497,23.590587 124.002,7.5636 c 25.972,-11.4666933 56.95602,-8.21876541 74.119,11.874 20.51796,27.002653 17.19507,50.640798 15.03508,89.48562 -4.17096,33.63415 40.88203,84.45486 51.50089,141.44554 z"
       id="path3145"
       inkscape:connector-curvature="0"
       sodipodi:nodetypes="ccccccccccc" />
  </g>
  <g
     id="g3177">
    <path
       style="fill:#ffffff;stroke:none"
       d="m 137.175,129.177 c -9.354,0.36 -17.69889,-20.59089 -18.88189,-10.96189 -1.6947,42.77432 -32.319968,56.15179 -41.70441,93.85589 -2.899617,14.95851 -10.184369,37.83466 -0.08,46.054 10.041284,11.96678 50.07425,26.43808 40.5873,47.353 -3.251,4.815 -16.151,4.253 -16.081,4.253 -0.07,0 11.199,13.376 13.138,15.326 1.869,1.868 12.158,10.715 44.97,4.598 18.489,-3.458 32.812,-13.812 43.175,-23.816 14.50173,-13.08201 18.32512,-26.89916 22.435,-44.994 -1.74404,-62.91175 -48.84351,-111.23238 -40.64154,-158.1491 -14.532,0.791 -33.17446,25.9011 -46.91646,26.4811 z"
       id="path3179"
       inkscape:connector-curvature="0"
       sodipodi:nodetypes="cccccccccccc" />
  </g>
  <g
     id="g3189">
    <path
       style="fill:#ffb80f;stroke:none"
       d="m 286.735,267.383 c 7.86713,14.96701 -4.24293,17.82759 17.247,31.508 8.23764,5.79561 10.08239,14.21019 2.159,21.989 -18.6769,12.41301 -38.93651,22.098 -54.41,37.49 -10.92059,9.64692 -32.34292,13.75122 -43.316,4.246 -12.96135,-17.28409 -2.97543,-41.88178 -1.219,-58.867 0.72,-7.265 0.639,-16.26 0.639,-24.246 0.82584,-13.82867 -2.57691,-22.5012 11.663,-22.527 4.608,0 6.687,0.29 8.206,1.798 1.82734,13.11672 3.4721,21.24762 15.682,22.378 17.15079,5.26417 19.55379,-17.24347 29.213,-19.999 0.72,0 10.49661,-0.92597 14.136,6.23 z"
       id="path3191"
       inkscape:connector-curvature="0"
       sodipodi:nodetypes="cccccccccccc" />
    <path
       style="fill:#ffb80f;stroke:none"
       d="m 29.7347,274.466 c -6.476,4.678 -20.87696,4.238 -25.05495,9.714 -4.75160477,7.10199 4.7633791,23.51372 4.0297843,29.04539 C 6.6643448,321.36167 -2.4007213,332.0207 1.30974,338.72 c 3.679,6.116 9.57506,7.626 43.32596,14.683 18.06,3.737 35.111,13.451 46.5551,14.391 45.7503,-6.85241 22.29266,-42.66929 11.0132,-60.157 -9.8643,-15.621 -11.4442,-18.498 -17.9893,-28.853 -6.547,-10.225 -19.5,-28.784 -26.916,-29.005 -14.617072,1.17272 -18.368114,17.7251 -27.564,24.687 z"
       id="path3193"
       inkscape:connector-curvature="0"
       sodipodi:nodetypes="cccccccccc" />
  </g>
  <g
     id="g3195">
    <path
       style="fill:#ffffff;stroke:none"
       d="m 125.661,94.9956 c 8.48138,-4.146203 10.74962,-14.648592 10.724,-22.457 -0.55608,-9.479226 -6.6683,-20.134692 -17.27,-18.42 -5.60149,2.897799 -7.80815,9.096622 -7.986,14.752 -0.72756,8.859243 4.01757,29.743539 14.532,26.125 z"
       id="path3197"
       inkscape:connector-curvature="0"
       sodipodi:nodetypes="ccccc" />
    <path
       style="fill:#000000;stroke:none"
       d="m 121.633,65.7026 c 5.83902,0.884126 8.50566,6.235185 8.566,11.153 0,4.608 -0.509,9.715 -3.239,11.303 -0.869,0.501 -2.738,0.93 -3.817,0.93 -4.68387,-1.207313 -8.02609,-7.95581 -8.137,-12.443 -0.15756,-5.045198 1.1803,-10.857111 6.627,-10.943 z"
       id="path3199"
       inkscape:connector-curvature="0"
       sodipodi:nodetypes="cccccc" />
    <path
       style="fill:#ffffff;stroke:none"
       d="m 170.277,95.9256 c 10.794,-1.149 14.611,-5.318 16.55,-12.593 2.37103,-14.057354 -3.04841,-30.796784 -16.691,-31.943 -15.82869,0.198313 -18.96941,14.762678 -18.789,22.808 0.61988,10.567071 6.8332,21.584517 18.93,21.728 z"
       id="path3201"
       inkscape:connector-curvature="0"
       sodipodi:nodetypes="ccccc" />
    <path
       style="fill:#000000;stroke:none"
       d="m 169.417,65.4226 c 5.397,0 8.555,4.817 9.634,11.004 0.73476,6.434451 -3.91062,12.320991 -10.144,12.453 -9.17341,0.03403 -9.16992,-3.973402 -9.205,-12.453 0.2009,-6.491632 3.40943,-10.963494 9.715,-11.004 z"
       id="path3203"
       inkscape:connector-curvature="0"
       sodipodi:nodetypes="ccccc" />
  </g>
  <g
     id="g3213">
    <path
       style="fill:#ffb80f;stroke:none"
       d="m 142.142,79.8146 c 5.247,-0.65 12.443,0.639 15.761,3.088 3.088,2.309 5.247,3.528 8.056,4.467 9.425,3.089 21.808,4.528 21.228,13.0234 -0.65,10.145 -3.599,9.12644 -12.014,17.341 -16.24212,9.93114 -18.859,13.812 -28.214,13.812 -14.26682,1.30824 -17.37975,-4.405 -26.475,-12.013 -5.327,-4.318 -10.294,-8.926 -10.435,-14.973 -0.219,-6.3964 3.959,-8.4854 9.856,-13.5914 3.098,-2.739 8.705,-7.276 12.593,-9.286 3.598,-1.799 5.896,-1.438 9.644,-1.868 z"
       id="path3215"
       inkscape:connector-curvature="0"
       sodipodi:nodetypes="ccccccccccc" />
    <path
       style="fill:#000000;stroke:none"
       d="m 111.98713,108.80358 c 0.724,2.359 4.55158,5.40099 6.59858,7.04399 2.5,2.006 5.58,3.996 8.274,5.346 1.585,0.796 5.544,1.698 5.544,1.698 3.808,0.5 7.347,0.359 9.645,0.359 12.68624,-0.91444 23.43825,-7.96022 32.603,-13.242 4.746,-2.659 8.76322,-5.46341 8.634,-7.1264 -43.2108,28.54794 -55.10605,18.62592 -71.29858,5.92141 z"
       id="path3217"
       inkscape:connector-curvature="0"
       sodipodi:nodetypes="cccccccc" />
    <path
       style="stroke:none; fill:#000000"
       d="M 146.39 84.7716C 147.179 86.3606 149.188 86.5706 150.558 87.3696C 151.856 88.0896 152.577 88.2296 153.075 87.9396C 154.225 87.3696 153.366 85.2816 152.217 84.5616C 151.137 83.8426 145.95 83.6926 146.39 84.7716z"
       id="path3219" />
    <path
       style="stroke:none; fill:#000000"
       d="M 130.559 87.1506C 130.339 87.7996 132.137 89.0196 132.997 88.1586C 134.006 87.3696 135.156 86.5706 135.596 86.2906C 137.395 85.1316 136.675 84.3426 133.797 84.7716C 130.838 85.3506 130.838 86.5006 130.559 87.1506z"
       id="path3221" />
  </g>
  <g
     id="g3223">
    <path
       style="fill:#ffffff;stroke:none"
       d="m 269.516,256.913 c 0.199,2.551 -1.296,1.586 -2.782,-0.682 -13.1919,-11.5477 -22.49101,-6.19688 -34.977,-2.543 18.62907,-10.27583 25.48209,-6.29795 37.759,3.225 z"
       id="path3227"
       inkscape:connector-curvature="0"
       sodipodi:nodetypes="cccc" />
  </g>
</svg>

<?xml version="1.0" encoding="UTF-8" standalone="no"?>
<svg
   xmlns:dc="http://purl.org/dc/elements/1.1/"
   xmlns:cc="http://creativecommons.org/ns#"
   xmlns:rdf="http://www.w3.org/1999/02/22-rdf-syntax-ns#"
   xmlns:svg="http://www.w3.org/2000/svg"
   xmlns="http://www.w3.org/2000/svg"
   xmlns:sodipodi="http://sodipodi.sourceforge.net/DTD/sodipodi-0.dtd"
   xmlns:inkscape="http://www.inkscape.org/namespaces/inkscape"
   width="310.96"
   height="367.914"
   id="svg3131"
   version="1.1"
   inkscape:version="0.48.3.1 r9886"
   sodipodi:docname="penguin-flat.svg">
  <metadata
     id="metadata3237">
    <rdf:RDF>
      <cc:Work
         rdf:about="">
        <dc:format>image/svg+xml</dc:format>
        <dc:type
           rdf:resource="http://purl.org/dc/dcmitype/StillImage" />
      </cc:Work>
    </rdf:RDF>
  </metadata>
  <sodipodi:namedview
     pagecolor="#ffffff"
     bordercolor="#666666"
     borderopacity="1"
     objecttolerance="10"
     gridtolerance="10"
     guidetolerance="10"
     inkscape:pageopacity="0"
     inkscape:pageshadow="2"
     inkscape:window-width="1366"
     inkscape:window-height="718"
     id="namedview3235"
     showgrid="false"
     inkscape:zoom="1.1578322"
     inkscape:cx="224.66712"
     inkscape:cy="197.03741"
     inkscape:window-x="0"
     inkscape:window-y="0"
     inkscape:window-maximized="1"
     inkscape:current-layer="svg3131" />
  <defs
     id="defs3133">
    <marker
       id="ArrowEnd"
       viewBox="0 0 10 10"
       refX="0"
       refY="5"
       markerUnits="strokeWidth"
       markerWidth="4"
       markerHeight="3"
       orient="auto">
      <path
         d="M 0 0 L 10 5 L 0 10 z"
         id="path3136" />
    </marker>
    <marker
       id="ArrowStart"
       viewBox="0 0 10 10"
       refX="10"
       refY="5"
       markerUnits="strokeWidth"
       markerWidth="4"
       markerHeight="3"
       orient="auto">
      <path
         d="M 10 0 L 0 5 L 10 10 z"
         id="path3139" />
    </marker>
  </defs>
  <g
     id="g3141" />
  <g
     id="g3143"
     transform="matrix(3,0,0,3,-311.64158,-368.98939)">
    <path
       style="fill:#000000;stroke:none"
       d="M 264.65697,250.36876 C 277.39993,298.80867 251.731,306.918 238.928,324.908 c -12.812,18.06 -11.224,34.32 -34.9,27.994 -31.67968,-7.11043 -70.12225,-6.03654 -88.801,2.369 -15.111,6.835 -65.8433,-82.893 -69.9412,-99.594 -5.250079,-29.94034 14.132328,-65.61994 30.4339,-90.52 C 90.0918,143.52 91.879853,140.73861 98.503,109.285 93.9757,47.0386 96.704497,23.590587 124.002,7.5636 c 25.972,-11.4666933 56.95602,-8.21876541 74.119,11.874 20.51796,27.002653 17.19507,50.640798 15.03508,89.48562 -4.17096,33.63415 40.88203,84.45486 51.50089,141.44554 z"
       id="path3145"
       inkscape:connector-curvature="0"
       sodipodi:nodetypes="ccccccccccc" />
  </g>
  <g
     id="g3177"
     transform="matrix(3,0,0,3,-311.64158,-368.98939)">
    <path
       style="fill:#ffffff;stroke:none"
       d="m 137.175,129.177 c -9.354,0.36 -17.69889,-20.59089 -18.88189,-10.96189 -1.6947,42.77432 -32.319968,56.15179 -41.70441,93.85589 -2.899617,14.95851 -10.184369,37.83466 -0.08,46.054 10.041284,11.96678 50.07425,26.43808 40.5873,47.353 -3.251,4.815 -16.151,4.253 -16.081,4.253 -0.07,0 11.199,13.376 13.138,15.326 1.869,1.868 12.158,10.715 44.97,4.598 18.489,-3.458 32.812,-13.812 43.175,-23.816 14.50173,-13.08201 18.32512,-26.89916 22.435,-44.994 -1.74404,-62.91175 -48.84351,-111.23238 -40.64154,-158.1491 -14.532,0.791 -33.17446,25.9011 -46.91646,26.4811 z"
       id="path3179"
       inkscape:connector-curvature="0"
       sodipodi:nodetypes="cccccccccccc" />
  </g>
  <g
     id="g3189"
     transform="matrix(3,0,0,3,-311.64158,-368.98939)">
    <path
       style="fill:#ffb80f;stroke:none"
       d="m 286.735,267.383 c 7.86713,14.96701 -4.24293,17.82759 17.247,31.508 8.23764,5.79561 10.08239,14.21019 2.159,21.989 -18.6769,12.41301 -38.93651,22.098 -54.41,37.49 -10.92059,9.64692 -32.34292,13.75122 -43.316,4.246 -12.96135,-17.28409 -2.97543,-41.88178 -1.219,-58.867 0.72,-7.265 0.639,-16.26 0.639,-24.246 0.82584,-13.82867 -2.57691,-22.5012 11.663,-22.527 4.608,0 6.687,0.29 8.206,1.798 1.82734,13.11672 3.4721,21.24762 15.682,22.378 17.15079,5.26417 19.55379,-17.24347 29.213,-19.999 0.72,0 10.49661,-0.92597 14.136,6.23 z"
       id="path3191"
       inkscape:connector-curvature="0"
       sodipodi:nodetypes="cccccccccccc" />
    <path
       style="fill:#ffb80f;stroke:none"
       d="m 29.7347,274.466 c -6.476,4.678 -20.87696,4.238 -25.05495,9.714 -4.75160477,7.10199 4.7633791,23.51372 4.0297843,29.04539 C 6.6643448,321.36167 -2.4007213,332.0207 1.30974,338.72 c 3.679,6.116 9.57506,7.626 43.32596,14.683 18.06,3.737 35.111,13.451 46.5551,14.391 45.7503,-6.85241 22.29266,-42.66929 11.0132,-60.157 -9.8643,-15.621 -11.4442,-18.498 -17.9893,-28.853 -6.547,-10.225 -19.5,-28.784 -26.916,-29.005 -14.617072,1.17272 -18.368114,17.7251 -27.564,24.687 z"
       id="path3193"
       inkscape:connector-curvature="0"
       sodipodi:nodetypes="cccccccccc" />
  </g>
  <g
     id="g3195"
     transform="matrix(3,0,0,3,-311.64158,-368.98939)">
    <path
       style="fill:#ffffff;stroke:none"
       d="m 125.661,94.9956 c 8.48138,-4.146203 10.74962,-14.648592 10.724,-22.457 -0.55608,-9.479226 -6.6683,-20.134692 -17.27,-18.42 -5.60149,2.897799 -7.80815,9.096622 -7.986,14.752 -0.72756,8.859243 4.01757,29.743539 14.532,26.125 z"
       id="path3197"
       inkscape:connector-curvature="0"
       sodipodi:nodetypes="ccccc" />
    <path
       style="fill:#000000;stroke:none"
       d="m 121.633,65.7026 c 5.83902,0.884126 8.50566,6.235185 8.566,11.153 0,4.608 -0.509,9.715 -3.239,11.303 -0.869,0.501 -2.738,0.93 -3.817,0.93 -4.68387,-1.207313 -8.02609,-7.95581 -8.137,-12.443 -0.15756,-5.045198 1.1803,-10.857111 6.627,-10.943 z"
       id="path3199"
       inkscape:connector-curvature="0"
       sodipodi:nodetypes="cccccc" />
    <path
       style="fill:#ffffff;stroke:none"
       d="m 170.277,95.9256 c 10.794,-1.149 14.611,-5.318 16.55,-12.593 2.37103,-14.057354 -3.04841,-30.796784 -16.691,-31.943 -15.82869,0.198313 -18.96941,14.762678 -18.789,22.808 0.61988,10.567071 6.8332,21.584517 18.93,21.728 z"
       id="path3201"
       inkscape:connector-curvature="0"
       sodipodi:nodetypes="ccccc" />
    <path
       style="fill:#000000;stroke:none"
       d="m 169.417,65.4226 c 5.397,0 8.555,4.817 9.634,11.004 0.73476,6.434451 -3.91062,12.320991 -10.144,12.453 -9.17341,0.03403 -9.16992,-3.973402 -9.205,-12.453 0.2009,-6.491632 3.40943,-10.963494 9.715,-11.004 z"
       id="path3203"
       inkscape:connector-curvature="0"
       sodipodi:nodetypes="ccccc" />
  </g>
  <g
     id="g3213"
     transform="matrix(3,0,0,3,-311.64158,-368.98939)">
    <path
       style="fill:#ffb80f;stroke:none"
       d="m 142.142,79.8146 c 5.247,-0.65 12.443,0.639 15.761,3.088 3.088,2.309 5.247,3.528 8.056,4.467 9.425,3.089 21.808,4.528 21.228,13.0234 -0.65,10.145 -3.599,9.12644 -12.014,17.341 -16.24212,9.93114 -18.859,13.812 -28.214,13.812 -14.26682,1.30824 -17.37975,-4.405 -26.475,-12.013 -5.327,-4.318 -10.294,-8.926 -10.435,-14.973 -0.219,-6.3964 3.959,-8.4854 9.856,-13.5914 3.098,-2.739 8.705,-7.276 12.593,-9.286 3.598,-1.799 5.896,-1.438 9.644,-1.868 z"
       id="path3215"
       inkscape:connector-curvature="0"
       sodipodi:nodetypes="ccccccccccc" />
    <path
       style="fill:#000000;stroke:none"
       d="m 111.98713,108.80358 c 0.724,2.359 4.55158,5.40099 6.59858,7.04399 2.5,2.006 5.58,3.996 8.274,5.346 1.585,0.796 5.544,1.698 5.544,1.698 3.808,0.5 7.347,0.359 9.645,0.359 12.68624,-0.91444 23.43825,-7.96022 32.603,-13.242 4.746,-2.659 8.76322,-5.46341 8.634,-7.1264 -43.2108,28.54794 -55.10605,18.62592 -71.29858,5.92141 z"
       id="path3217"
       inkscape:connector-curvature="0"
       sodipodi:nodetypes="cccccccc" />
    <path
       style="fill:#000000;stroke:none"
       d="m 146.39,84.7716 c 0.789,1.589 2.798,1.799 4.168,2.598 1.298,0.72 2.019,0.86 2.517,0.57 1.15,-0.57 0.291,-2.658 -0.858,-3.378 -1.08,-0.719 -6.267,-0.869 -5.827,0.21 z"
       id="path3219"
       inkscape:connector-curvature="0" />
    <path
       style="fill:#000000;stroke:none"
       d="m 130.559,87.1506 c -0.22,0.649 1.578,1.869 2.438,1.008 1.009,-0.789 2.159,-1.588 2.599,-1.868 1.799,-1.159 1.079,-1.948 -1.799,-1.519 -2.959,0.579 -2.959,1.729 -3.238,2.379 z"
       id="path3221"
       inkscape:connector-curvature="0" />
  </g>
  <g
     id="g3223"
     transform="matrix(3,0,0,3,-311.64158,-368.98939)">
    <path
       style="fill:#ffffff;stroke:none"
       d="m 269.516,256.913 c 0.199,2.551 -1.296,1.586 -2.782,-0.682 -13.1919,-11.5477 -22.49101,-6.19688 -34.977,-2.543 18.62907,-10.27583 25.48209,-6.29795 37.759,3.225 z"
       id="path3227"
       inkscape:connector-curvature="0"
       sodipodi:nodetypes="cccc" />
  </g>
</svg>
